Hatter-kde/actions/16/node.svg

<svg xmlns="http://www.w3.org/2000/svg" viewBox="0 0 16 16">
  <defs id="defs3051">
    <style type="text/css" id="current-color-scheme">
      .ColorScheme-Text {
        color:#363636;
      }
      </style>
  </defs>
 <path style="fill:currentColor;fill-opacity:1;stroke:none" 
       d="M 5.3046875 2 C 5.3146577 1.9977052 2 5.3125 2 5.3125 L 2 6 L 2 13.3125 L 2 14 L 2.6875 14 L 10 14 L 10.6875 14 C 10.6875 14 14.01095 10.717346 14 10.71875 L 14 10 L 14 2 L 6 2 L 5.3046875 2 z M 6 3 L 12.28125 3 C 11.447912 3.8443302 10.654056 4.6611779 10.3125 5 L 6 5 L 6 3 z M 5 3.71875 L 5 5 L 3.6875 5 L 5 3.71875 z M 13 3.71875 L 13 10 L 11 10 L 11 6 L 11 5.6875 L 13 3.71875 z M 3 6 L 5 6 L 5 10.28125 L 4.65625 10.65625 L 3 12.3125 L 3 6 z M 6 6 L 10 6 L 10 10 L 6 10 L 6 6 z M 5.71875 11 L 10 11 L 10 13 L 3.6875 13 L 5.34375 11.34375 L 5.71875 11 z M 11 11 L 12.28125 11 C 11.736618 11.551816 11.545683 11.761999 11 12.3125 L 11 11 z "
     class="ColorScheme-Text"
     />
</svg>

<?xml version="1.0" encoding="UTF-8"?>
<svg viewBox="0 0 16 16" xmlns="http://www.w3.org/2000/svg">
 <defs id="defs3051">
  <style id="current-color-scheme" type="text/css">.ColorScheme-Text {
        color:#363636;
      }</style>
 </defs>
 <path class="ColorScheme-Text" d="m5.3047 2c0.0099702-0.0022948-3.3047 3.3125-3.3047 3.3125v0.6875 7.3125 0.6875h0.6875 7.3125 0.6875s3.3234-3.2827 3.3125-3.2812v-0.71875-8h-8-0.69531zm0.69531 1h6.2812c-0.83334 0.84433-1.6272 1.6612-1.9688 2h-4.3125v-2zm-1 0.71875v1.2812h-1.3125l1.3125-1.2812zm8 0v6.2812h-2v-4-0.3125l2-1.9688zm-10 2.2812h2v4.2812l-0.34375 0.375-1.6562 1.6562v-6.3125zm3 0h4v4h-4v-4zm-0.28125 5h4.2812v2h-6.3125l1.6562-1.6562 0.375-0.34375zm5.2812 0h1.2812c-0.54463 0.55182-0.73557 0.762-1.2812 1.3125v-1.3125z" fill="currentColor"/>
</svg>
